icons/medium-2-column-16.svg

<?xml version="1.0" encoding="UTF-8"?><svg id="icons" xmlns="http://www.w3.org/2000/svg" viewBox="0 0 16 16"><defs><style>.cls-1{fill:none;}.cls-1,.cls-2,.cls-3,.cls-4{stroke-width:0px;}.cls-2{opacity:.5;}.cls-3{opacity:.25;}</style></defs><rect class="cls-1" width="16" height="16"/><path class="cls-4" d="m16,16H0V0h16v16Zm-15-1h14V1H1v14Zm13-5H5V2h9v8Zm-8-1h7V3h-7v6Z"/><path class="cls-2" d="m10,5h-1v-1h1v1Zm0,1h-1v1h1v-1Zm0,2h-1v1h1v-1Z"/><path class="cls-3" d="m6,9h3v-1h1v1h3V3h-7v6Zm3-5h1v1h-1v-1Zm0,2h1v1h-1v-1Z"/></svg>

<svg xmlns="http://www.w3.org/2000/svg" viewBox="0 0 16 16"><path stroke-width="0" fill="none" d="M0 0h16v16H0z"/><path d="M16 16H0V0h16v16zM1 15h14V1H1v14zm13-5H5V2h9v8zM6 9h7V3H6v6z" stroke-width="0"/><path d="M10 5H9V4h1v1zm0 1H9v1h1V6zm0 2H9v1h1V8z" opacity=".5" stroke-width="0"/><path d="M6 9h3V8h1v1h3V3H6v6zm3-5h1v1H9V4zm0 2h1v1H9V6z" opacity=".25" stroke-width="0"/></svg>
